X: 2
T: The Donegal Lass
R: jig
M: 6/8
L: 1/8
K: Amix
|:Ace aed|cdB ~A2 A|GBd ~G2 G|FAd ~f3|
Ac/d/e aed|cdB A2 a|aed cdB|ABG ~A2 A:|
|:GBd ~G2 G|FAd ~f2 f|~e2 e ecA|c/d/ec dBA|
GBd ~G2 G|FAd ~f2 f|aed cdB|ABG ~A2 A:|